src/assets/flags/lb.svg

<?xml version="1.0" encoding="UTF-8"?>
<svg xmlns="http://www.w3.org/2000/svg" xmlns:xlink="http://www.w3.org/1999/xlink" width="25px" height="px" viewBox="0 0 25 19" version="1.1">
<g id="surface1">
<path style=" stroke:none;fill-rule:evenodd;fill:rgb(93.333334%,8.627451%,12.156863%);fill-opacity:1;" d="M -1.5625 14.25 L 26.5625 14.25 L 26.5625 19 L -1.5625 19 Z M -1.5625 0 L 26.5625 0 L 26.5625 4.75 L -1.5625 4.75 Z M -1.5625 0 "/>
<path style=" stroke:none;fill-rule:evenodd;fill:rgb(100%,100%,100%);fill-opacity:1;" d="M -1.5625 4.75 L 26.5625 4.75 L 26.5625 14.25 L -1.5625 14.25 Z M -1.5625 4.75 "/>
<path style=" stroke:none;fill-rule:nonzero;fill:rgb(0%,65.882355%,31.37255%);fill-opacity:1;" d="M 12.355469 4.824219 C 12.070312 5.398438 11.882812 5.398438 11.40625 5.789062 C 11.214844 5.976562 10.929688 6.074219 11.308594 6.273438 C 10.925781 6.460938 10.734375 6.558594 10.542969 6.941406 L 10.640625 7.039062 C 10.640625 7.039062 11.007812 6.863281 11.019531 6.941406 C 11.085938 7.019531 10.542969 7.3125 10.476562 7.363281 L 10.070312 7.621094 C 9.59375 8.003906 9.304688 7.90625 9.019531 8.488281 L 9.972656 8.390625 C 10.164062 9.066406 9.496094 9.164062 9.019531 9.453125 L 8.253906 9.933594 C 8.449219 10.609375 9.019531 10.222656 9.496094 10.03125 L 9.59375 10.128906 L 9.59375 10.320312 L 8.640625 10.800781 C 8.640625 10.800781 7.511719 11.457031 7.492188 11.476562 C 7.488281 11.515625 7.492188 11.671875 7.492188 11.671875 C 7.875 11.765625 8.445312 11.863281 8.832031 11.671875 C 9.304688 11.476562 9.402344 11.285156 9.972656 11.285156 C 9.421875 11.71875 8.761719 11.988281 8.070312 12.058594 L 8.070312 12.441406 C 8.640625 12.441406 9.019531 12.441406 9.496094 12.347656 L 10.734375 11.960938 C 11.019531 11.960938 11.308594 12.25 11.210938 12.539062 C 10.929688 13.601562 9.78125 13.40625 9.402344 14.277344 L 10.925781 13.695312 C 11.304688 13.5 11.6875 13.3125 12.164062 13.40625 C 12.734375 13.601562 12.734375 13.988281 13.496094 14.179688 L 13.304688 13.695312 C 13.496094 13.792969 13.6875 13.792969 13.878906 13.890625 C 14.355469 14.082031 14.453125 14.277344 15.023438 14.179688 C 14.546875 13.601562 14.453125 13.695312 14.070312 13.3125 C 13.691406 12.730469 13.496094 11.863281 14.070312 11.765625 L 14.738281 11.960938 C 15.402344 12.058594 15.402344 11.863281 16.355469 12.25 C 16.929688 12.441406 17.121094 12.730469 17.785156 12.539062 C 17.503906 11.863281 16.453125 11.382812 15.785156 11.1875 C 16.550781 10.707031 16.355469 11.382812 17.40625 11.09375 L 17.40625 10.898438 C 16.648438 10.316406 16.359375 9.835938 15.3125 9.835938 L 16.933594 9.640625 L 16.933594 9.449219 C 16.933594 9.449219 15.335938 9.023438 15.296875 9.007812 C 15.308594 8.957031 15.347656 8.882812 15.457031 8.839844 C 15.757812 9.039062 16.675781 9.019531 16.730469 9.015625 C 16.699219 8.777344 16.265625 8.578125 15.886719 8.386719 C 15.886719 8.386719 14.25 7.367188 14.242188 7.277344 C 14.277344 7.015625 14.914062 7.316406 15.597656 7.519531 C 15.40625 7.132812 15.027344 6.9375 14.644531 6.84375 L 15.21875 6.746094 C 14.835938 5.878906 13.882812 5.976562 13.3125 5.589844 C 12.929688 5.300781 12.929688 5.105469 12.355469 4.820312 Z M 12.355469 4.824219 "/>
<path style="fill-rule:evenodd;fill:rgb(100%,100%,100%);fill-opacity:1;stroke-width:3.2;stroke-linecap:round;stroke-linejoin:round;stroke:rgb(100%,100%,100%);stroke-opacity:1;stroke-miterlimit:4;" d="M 224 302.947368 C 225.92 296.947368 228.373333 291.368421 216.746667 286.105263 C 205.226667 280.842105 222.613333 307.157895 224 303.052632 Z M 237.653333 290.736842 C 235.413333 290.947368 234.133333 299.473684 238.826667 301.894737 C 243.946667 302.736842 239.786667 290.842105 237.653333 290.736842 M 251.2 289.684211 C 248.746667 290.526316 248.746667 302.526316 257.173333 300.315789 C 265.813333 298.210526 257.173333 288.842105 251.2 289.789474 Z M 266.986667 258.947368 C 268.8 256 266.88 244 259.626667 249.052632 C 252.266667 254 264.64 259.789474 266.986667 258.947368 M 250.986667 249.052632 C 253.333333 248.105263 253.546667 240.736842 247.04 242.736842 C 240.746667 244.631579 249.28 250.526316 250.986667 249.052632 M 236.586667 251.894737 C 236.586667 251.894737 232.106667 245.684211 228.586667 246.947368 C 224.32 251.157895 236.906667 252 236.586667 251.894737 M 186.986667 271.684211 C 188.906667 271.894737 202.986667 269.368421 207.893333 263.894737 C 212.8 258.421053 182.826667 266.210526 182.826667 266.315789 C 182.826667 266.421053 185.6 271.157895 186.986667 271.684211 M 328.106667 236.736842 C 328.746667 235.368421 320.64 229.578947 315.733333 231.894737 C 314.453333 236.210526 328.106667 237.578947 328.106667 236.736842 M 300.266667 222.736842 C 301.866667 220.526316 296.746667 211.368421 286.613333 216.526316 C 276.373333 221.473684 297.28 226.315789 300.266667 222.842105 Z M 268.16 217.368421 C 268.16 217.368421 270.72 209.157895 276.8 210.842105 C 283.84 216.105263 268.48 217.684211 268.16 217.368421 M 262.186667 211.157895 C 261.226667 208.947368 254.933333 210.210526 247.573333 215.052632 C 240.213333 219.789474 264.426667 216.526316 262.186667 211.052632 Z M 280.853333 189.052632 C 280.853333 189.052632 287.36 186.105263 289.386667 189.052632 C 292.053333 193.368421 280.746667 189.052632 280.853333 189.052632 M 275.413333 186.210526 C 274.133333 183.578947 266.88 183.263158 267.093333 187.157895 C 265.92 190.210526 276.48 189.578947 275.413333 186.210526 M 258.24 186.210526 C 257.493333 184.736842 247.253333 186.210526 244.16 192.421053 C 249.173333 194.842105 260.48 190.105263 258.24 186.210526 M 236.16 192.526316 C 236.16 192.526316 222.826667 200.842105 221.866667 206.842105 C 222.293333 212 238.72 197.368421 238.72 197.368421 C 238.72 197.368421 240.106667 191.578947 236.266667 192.526316 Z M 221.333333 184.947368 C 221.653333 183.263158 227.946667 179.368421 228.48 179.684211 C 229.013333 181.368421 223.36 186 221.333333 184.947368 M 225.6 216.631579 C 225.92 214.105263 209.6 214.315789 215.68 221.789474 C 220.906667 228.105263 226.666667 217.684211 225.6 216.631579 M 210.56 227.263158 C 209.813333 225.684211 208.64 221.263158 206.4 220.947368 C 204.48 220.947368 194.666667 222.947368 193.92 224.526316 C 193.493333 225.789474 197.973333 233.894737 199.466667 234.105263 C 201.28 234.842105 210.346667 228.105263 210.666667 227.263158 Z M 298.986667 282.526316 C 299.52 280.736842 316.266667 274.947368 322.026667 280.526316 C 328.746667 289.789474 298.56 285.473684 298.986667 282.526316 M 344.96 293.368421 C 348.693333 287.157895 333.653333 279.789474 327.36 286.947368 C 329.6 295.368421 341.973333 298.526316 344.96 293.368421 " transform="matrix(0.0366211,0,0,0.0371094,3.125,0)"/>
</g>
</svg>

<svg xmlns="http://www.w3.org/2000/svg" width="25" height="px" viewBox="0 0 25 19"><path d="M-1.562 14.25h28.125V19H-1.562Zm0-14.25h28.125v4.75H-1.562Zm0 0" style="stroke:none;fill-rule:evenodd;fill:#ee161f;fill-opacity:1"/><path d="M-1.562 4.75h28.125v9.5H-1.562Zm0 0" style="stroke:none;fill-rule:evenodd;fill:#fff;fill-opacity:1"/><path d="M12.355 4.824c-.285.574-.472.574-.949.965-.191.188-.476.285-.097.484-.383.188-.575.286-.766.668l.098.098s.367-.176.379-.098c.066.079-.477.372-.543.422l-.407.258c-.476.383-.765.285-1.05.867l.953-.097c.191.675-.477.773-.953 1.062l-.766.48c.195.676.766.29 1.242.098l.098.098v.191l-.953.48s-1.13.657-1.149.677c-.004.039 0 .195 0 .195.383.094.953.191 1.34 0 .473-.195.57-.387 1.14-.387-.55.434-1.21.703-1.902.774v.382c.57 0 .95 0 1.426-.093l1.238-.387c.286 0 .575.289.477.578-.281 1.063-1.43.867-1.809 1.738l1.524-.582c.379-.195.761-.383 1.238-.289.57.196.57.582 1.332.774l-.191-.485c.191.098.383.098.574.196.476.191.574.386 1.144.289-.476-.578-.57-.485-.953-.867-.379-.583-.574-1.45 0-1.547l.668.195c.664.098.664-.098 1.617.289.575.191.766.48 1.43.29-.281-.677-1.332-1.157-2-1.352.766-.481.57.195 1.621-.094v-.196c-.758-.582-1.047-1.062-2.093-1.062l1.62-.195v-.192s-1.597-.426-1.636-.441c.012-.051.05-.125.16-.168.3.2 1.219.18 1.273.176-.03-.239-.464-.438-.843-.63 0 0-1.637-1.019-1.645-1.109.035-.261.672.04 1.356.243-.192-.387-.57-.582-.953-.676l.574-.098c-.383-.867-1.336-.77-1.906-1.156-.383-.29-.383-.485-.958-.77Zm0 0" style="stroke:none;fill-rule:nonzero;fill:#00a850;fill-opacity:1"/><path d="M224 302.947c1.92-6 4.373-11.579-7.253-16.842-11.52-5.263 5.866 21.053 7.253 16.948Zm13.653-12.21c-2.24.21-3.52 8.737 1.174 11.158 5.12.842.96-11.053-1.174-11.158m13.547-1.053c-2.453.842-2.453 12.842 5.973 10.632 8.64-2.105 0-11.474-5.973-10.527Zm15.787-30.737c1.813-2.947-.107-14.947-7.36-9.894-7.36 4.947 5.013 10.736 7.36 9.894m-16-9.894c2.346-.948 2.56-8.316-3.947-6.316-6.293 1.895 2.24 7.79 3.947 6.316m-14.4 2.842s-4.48-6.21-8-4.948c-4.267 4.21 8.32 5.053 8 4.948m-49.6 19.79c1.92.21 16-2.317 20.906-7.79 4.907-5.474-25.066 2.316-25.066 2.42 0 .106 2.773 4.843 4.16 5.37m141.12-34.948c.64-1.369-7.467-7.158-12.374-4.842-1.28 4.316 12.374 5.684 12.374 4.842m-27.84-14c1.6-2.21-3.52-11.369-13.654-6.21-10.24 4.947 10.667 9.789 13.654 6.315Zm-32.107-5.369s2.56-8.21 8.64-6.526c7.04 5.263-8.32 6.842-8.64 6.526m-5.973-6.21c-.96-2.21-7.254-.947-14.614 3.895-7.36 4.736 16.854 1.473 14.614-4Zm18.666-22.105s6.507-2.948 8.534 0c2.666 4.315-8.64 0-8.534 0m-5.44-2.842c-1.28-2.632-8.533-2.948-8.32.947-1.173 3.053 9.387 2.42 8.32-.947m-17.173 0c-.747-1.474-10.987 0-14.08 6.21 5.013 2.421 16.32-2.316 14.08-6.21m-22.08 6.315s-13.333 8.316-14.293 14.316c.426 5.158 16.853-9.474 16.853-9.474s1.387-5.79-2.453-4.842Zm-14.827-7.579c.32-1.684 6.614-5.579 7.147-5.263.533 1.684-5.12 6.316-7.147 5.263m4.267 31.685c.32-2.527-16-2.316-9.92 5.157 5.227 6.316 10.987-4.105 9.92-5.157m-15.04 10.631c-.747-1.579-1.92-6-4.16-6.316-1.92 0-11.733 2-12.48 3.58-.427 1.262 4.053 9.368 5.547 9.578 1.813.737 10.88-6 11.2-6.842Zm88.427 55.263c.533-1.79 17.28-7.579 23.04-2 6.72 9.263-23.467 4.948-23.04 2m45.973 10.842c3.733-6.21-11.307-13.579-17.6-6.42 2.24 8.42 14.613 11.578 17.6 6.42" style="fill-rule:evenodd;fill:#fff;fill-opacity:1;stroke-width:3.2;stroke-linecap:round;stroke-linejoin:round;stroke:#fff;stroke-opacity:1;stroke-miterlimit:4" transform="matrix(.03662 0 0 .0371 3.125 0)"/></svg>
